!! 00000] ST[
!!!OTL: Chiu K'uang (Jiu guang: Weintrunkenheit)
!!!ARE: Asia, China
!!!SCT: I0001
!!!YEM: Copyright 1995, estate of Helmut Schaffrath.
**kern
*ICvox
*Ivox
!! Mixed meters:  4/2; 6/4
*M4/2
*k[]
*C:
{4c
8dd
8g
4c
8ee
8g
4c
4gg
2gg
=1
4c
8gg
8g
4c
8aa-
8g
4c
4ccc
2ccc}
=2
{4c
8ccc
8g
4c
8aa-
8g
4c
4gg
2gg
=3
*M6/4
4c
8ee
8g
4c
4cc
2cc}
=4
*M4/2
{4a
4a
4ee
8dd
8cc
4c
4cc
2cc}
=5
{4a
4a
4ee
8dd
8cc
4c
4cc
2cc}
=6
{4c
8dd
8ee
4c
8ee
8gg
4c
4gg
2gg
=7
4c
8gg
8aa
4c
8aa
8ccc
4c
4ccc
2ccc}
=8
{4c
8ccc
8g
4c
8aa-
8g
4c
4gg
2gg
=9
*M6/4
4c
8ee
8g
4c
4cc
2cc}
=10
*M4/2
{4a
4a
4ee
8dd
8cc
4c
4cc
2cc}
=11
{4c
8dd
8ee
4c
8ee
8gg
4c
4gg
2gg
=12
4c
8gg
8aa
4c
8aa
8ccc
4c
4ccc
2ccc}
=13
{4e
8ee
8a
4d
8dd
8g
4c
4cc
2cc
=14
4e
8ee
8a
4d
8dd
8g
4c
4cc
4cc
8ee
8dd}
=15
{8A
8c
4c
4e
4e
8d
8f
4g
2g
=16
8A
8c
4c
4e
4e
8d
8f
4g
2g}
=17
{4a
4a
4ee
8dd
8cc
4c
4cc
2cc}
=18
{4a
4a
4ee
8dd
8cc
4c
4cc
2cc}
=19
{4c
8dd
8ee
4c
8ee
8gg
4c
4gg
2gg
=20
4c
8gg
8aa
4c
8aa
8ccc
4c
4ccc
2ccc}
=21
{4c
8dd
8g
4c
8ee
8g
4c
4gg
2gg
=22
4c
8gg
8g
4c
8aa-
8g
4c
4ccc
2ccc}
=23
{8g
8cc
4c
4ee
4e
8cc
8ff
4g
2gg
=24
8g
8cc
4c
4ee
4e
8cc
8ff
4g
2gg}
=25
{4aa
4aa
4eee
4ddd
4c
4ccc
2ccc
=26
4aa
4aa
4eee
4ddd
4c
4ccc
2ccc}
=27
{4e
8eee
8a
4d
8ddd
8g
4c
4cc
2cc
=28
4e
8eee
8a
4d
8ddd
8g
4c
4cc
2cc}
=29
{8g
8cc
4c
4ee
4e
8cc
8ff
4g
2gg
=30
8g
8cc
4c
4ee
4e
8cc
8ff
4g
2gg}
=31
{4aa
4aa
4eee
4ddd
4c
4ccc
2ccc
=32
4aa
4aa
4eee
4ddd
4c
4ccc
2ccc}
=33
{4e
8eee
8a
4d
8ddd
8g
4c
4cc
2cc
=34
4e
8eee
8a
4d
8ddd
8g
4c
4cc
2cc}
=35
{4c
8ccc
8g
4c
8aa-
8g
4c
4gg
2gg
=36
*M6/4
4c
8ee
8g
4c
4cc
2cc}
=37
*M4/2
{4a
4a
4ee
8dd
8cc
4c
4cc
2cc}
=38
{4a
4a
4ee
8dd
8cc
4c
4cc
2cc}
=39
{4c
8dd
8ee
4c
8ee
8gg
4c
4gg
2gg
=40
4c
8gg
8aa
4c
8aa
8ccc
4c
4ccc
2ccc
=41
8r}
!! 
!!!AGN: Kunstmusik
!! Die Notation sollte im Ba·schlÅssel erfolgen. Transkription nach
!!    Liang Mingyue; ohne seinen besonderen Schluss. Zeile 6, 17 und 30
!!    werden wiederholt! ++++ Zur Lesbarkeit auf C transponiert.
!!!AMT: irregular
!!!AIN: vox
!!!EED: Helmut Schaffrath
!!!EEV: 1.0
*-
!!!ONB: Strange 8n token in data
